X:1
T:Ut queant laxis
T:Guido 'Arrezzo
L:1/8
Q:1/4=44
M:4/4
K:C
V:1 treble nm="Voice" snm="Vo."
V:1
"^Very slow" C2 D2 F2 D2 | E2 D2 D2 D2 | C2 D2 E2 E2 | E2 F2 G2 E2 | D2 E2 C2 D2 | F2 G2 A2 G2 | %6
w: Ut que- ant la-|* xis. Re- so-|na- re fi- bris.|Mi- * * ra|ges- to- * rum.|Fa- mu- li tu-|
 F2 D2 D2 G2 | A2 G2 E2 F2 | G2 D2 A2 G2 | A2 F2 G2 A2 | A2 G2 F2 D2 | C2 E2 D4 |] %12
w: o- * rum. Sol-|* * ve pol-|lu- ti. La- bi-|i re- a- *|tum. Sanc- * te|Io- han nes.|

